icon-svg/go-group.svg

<svg xmlns="http://www.w3.org/2000/svg" fill="#44739e" viewBox="0 0 24 24"><path d="M22.3 9.35c-1.62-2.65-5.03-6.06-7.68-7.68C13.37.9 12.5.65 12.09.89c-1.43 1.16-2.46 2.98-2.78 4.93 3.12 2.12 6.71 5.71 8.84 8.84 1.94-.33 3.77-1.37 4.93-2.77.25-.42-.01-1.29-.78-2.54m-2.11 1.35c-2.25-1.59-5.32-4.66-6.91-6.91-1.61-2.28-1.12-2.9 1.14-1.33 2.3 1.59 5.49 4.79 7.08 7.09 1.58 2.27.97 2.76-1.31 1.15m-5.04 7.06c-2.89-2.04-6.85-6-8.9-8.9-2.07-2.94-1.44-3.74 1.48-1.71 2.96 2.05 7.07 6.17 9.12 9.13 2.03 2.92 1.24 3.55-1.7 1.48m2.73-1.74c-2.09-3.41-6.48-7.81-9.89-9.89-1.62-1-2.74-1.33-3.26-1.02C2.49 6.93 1 9.97 1 13.08c0 3.09 1.41 5.85 3.63 7.67h-.25c-.62 0-1.12.5-1.12 1.12s.51 1.12 1.12 1.12h5.9c.07 0 .14-.01.21-.02.14.01.28.02.43.02 3.07 0 6.16-1.53 7.97-3.72.31-.52-.03-1.64-1.01-3.25"/></svg>

<svg viewBox="0 0 24 24" height="24px" width="24px" fill="#44739e" xmlns="http://www.w3.org/2000/svg"><path d="M22.3,9.35c-1.62-2.65-5.03-6.06-7.68-7.68c-1.25-0.77-2.12-1.02-2.53-0.78c-1.43,1.16-2.46,2.98-2.78,4.93 c3.12,2.12,6.71,5.71,8.84,8.84c1.94-0.33,3.77-1.37,4.93-2.77C23.33,11.47,23.07,10.6,22.3,9.35z M20.19,10.7 c-2.25-1.59-5.32-4.66-6.91-6.91c-1.61-2.28-1.12-2.9,1.14-1.33c2.3,1.59,5.49,4.79,7.08,7.09C23.08,11.82,22.47,12.31,20.19,10.7z M15.15,17.76c-2.89-2.04-6.85-6-8.9-8.9C4.18,5.92,4.81,5.12,7.73,7.15c2.96,2.05,7.07,6.17,9.12,9.13 C18.88,19.2,18.09,19.83,15.15,17.76 M17.88,16.02c-2.09-3.41-6.48-7.81-9.89-9.89C6.37,5.13,5.25,4.8,4.73,5.11 C2.49,6.93,1,9.97,1,13.08c0,3.09,1.41,5.85,3.63,7.67H4.38c-0.62,0-1.12,0.5-1.12,1.12c0,0.62,0.51,1.12,1.12,1.12h5.9 c0.07,0,0.14-0.01,0.21-0.02c0.14,0.01,0.28,0.02,0.43,0.02c3.07,0,6.16-1.53,7.97-3.72C19.2,18.75,18.86,17.63,17.88,16.02"/></svg>
